src/icons/wallets/ledger/icon.svg

<svg height="17" viewBox="0 0 17 17" width="17" xmlns="http://www.w3.org/2000/svg" xmlns:xlink="http://www.w3.org/1999/xlink"><mask id="a" fill="#fff"><path d="m0 .181h3.96v3.819h-3.96z" fill="#fff" fill-rule="evenodd"/></mask><mask id="b" fill="#fff"><path d="m0 .178h3.96v3.68h-3.96z" fill="#fff" fill-rule="evenodd"/></mask><mask id="c" fill="#fff"><path d="m0 16h16v-16h-16z" fill="#fff" fill-rule="evenodd"/></mask><g fill="#000" fill-rule="evenodd"><path d="m0 1.27a2.73 2.73 0 0 0 2.73 2.73h1.23v-3.819h-3.96z" mask="url(#a)" transform="translate(0 12)"/><path d="m3.96 3.858v-3.68h-1.23c-1.506 0-2.73 1.14-2.73 2.548v1.132z" mask="url(#b)"/><path d="m0 10h4v-4h-4zm13.281-10h-7.281v10h10v-7.319c0-1.48-1.217-2.681-2.719-2.681m-1.281 16h1.196c1.548 0 2.804-1.28 2.804-2.86v-1.14h-4zm-6 0h4v-4h-4z" mask="url(#c)"/></g></svg>

<svg xmlns="http://www.w3.org/2000/svg" xmlns:xlink="http://www.w3.org/1999/xlink" width="17" height="17" viewBox="0 0 17 17">
    <defs>
        <path id="a" d="M0 .181h3.96V4H0z"/>
        <path id="c" d="M0 .178h3.96v3.68H0z"/>
        <path id="e" d="M0 16h16V0H0z"/>
    </defs>
    <g fill="none" fill-rule="evenodd" transform="translate(0 0)">
        <g transform="translate(0 12)">
            <mask id="b" fill="#fff">
                <use xlink:href="#a"/>
            </mask>
            <path fill="#000" d="M0 1.27A2.73 2.73 0 0 0 2.73 4h1.23V.181H0V1.27z" mask="url(#b)"/>
        </g>
        <mask id="d" fill="#fff">
            <use xlink:href="#c"/>
        </mask>
        <path fill="#000" d="M3.96 3.858V.178H2.73C1.224.178 0 1.318 0 2.726v1.132h3.96z" mask="url(#d)"/>
        <mask id="f" fill="#fff">
            <use xlink:href="#e"/>
        </mask>
        <path fill="#000" d="M0 10h4V6H0zM13.281 0H6v10h10V2.681C16 1.201 14.783 0 13.281 0M12 16h1.196C14.744 16 16 14.72 16 13.14V12h-4v4zM6 16h4v-4H6z" mask="url(#f)"/>
    </g>
</svg>
